!!!OTL: Der Vogelgaenger.
!!!OTL-incipit: DER VOGELFAENGER
!!!COM: W. A. Mozart
!!!ARE: Europa, Mitteleuropa, Deutschland
!!!SCT: F0151
!!!TXL: @@DE
!!!YEM: Copyright 1995, estate of Helmut Schaffrath.
**kern	**text
*ICvox	*
*clefG2	*
*M2/4	*
*k[f#]	*
*G:	*
!LO:TX:a:t=Allegretto.	!
{16b/L	1._Der
16aJ	.
=1	=1
8g	Vo-
8g	-gel-
16aL	-fän-
16gJ	.
16f#L	-ger
16gJ	.
=2	=2
8a	bin
8b/	ich
8a}	ja,
{16aL	ſtets
16f#J	.
=3	=3
8d	lu-
8d	-ſtig
8.dd	hei-
16dd	-ſa
=4	=4
8b/	hop-
8a	-ſa-
8g}	-ſa!
{8b/	der
=5	=5
16aL	Vo-
16gJ	.
16f#L	-gel-
16gJ	.
16aL	-fän-
16gJ	.
16f#L	-ger
16gJ	.
=6	=6
8a	iſt
8b/	be-
8a	-kannt
16r}	.
{16a	bei
=7	=7
8.dd	Alt
16dd	und
8.a	Jung
16a	im
=8	=8
8f#	gan-
8e	-ʒen
8d}	Land.
{16dL	Weiß
16f#J	.
=9	=9
8a	mit
8a	dem
16b/L	Lo-
16aJ	.
16gL	-cken
16aJ	.
=10	=10
8b/	um-
8a	-ʒu-
8g}	-gehn,
{8dd	und
=11	=11
16ddq	.
8.f#	mich
16f#	auf's
16aL	Pfei-
16gJ	.
16f#L	-fen
16gJ	.
=12	=12
8a	ʒu
8b/	verſtehn!
8a;}	.
{16gL	Drum
16aJ	.
=13	=13
8.b	kann
16b	ich
16ccL	froh
16bJ	.
16aL	und
16bJ	.
=14	=14
8cc	lu-
8dd	-ſtig
8ee}	ſein,
{(16ccL	denn
16aJ)	.
=15	=15
8.f#	al-
16f#	-le
16gL	Mädchen
16f#J	.
16eL	.
16f#J	.
=16	=16
16gL	ſind
16bJ	.
16aL	ja
16f#J	.
8g}	mein.
==	==
!!!AGN: Scherz -, Liebes - Lied
!!!ONB: ESAC (Essen Associative Code) Database: FINK
!!!AMT: simple duple
!!!AIN: vox
!!!EED: Helmut Schaffrath
!!!EEV: 1.0
!!!RDF**kern: > = above
!!!GTL: Volkslieder
!!Text: E. Schikaneder
!!!source: Musikalischer Hausschatz der Deutschen. Eine Sammlung von über 1000 Liedern und Gesängen mit Singstimmen und Klavierbegleitung. Leipzig, Litterarisches Verlags-Haus.
!!!page: 88
!!!URL-scan: https://www.digitale-sammlungen.de/en/view/bsb11144622?page=96
!!!ENC: Anna Maria Matuszewska
!!!EEV: 2024/08/09
*-	*-